launcher/android/assets/skins/day/svg/mapCache1.svg

<svg enable-background="new 0 0 258.00 258.00" height="258" viewBox="0 0 258 258" width="258" xmlns="http://www.w3.org/2000/svg" xmlns:xlink="http://www.w3.org/1999/xlink"><linearGradient id="a" gradientUnits="objectBoundingBox" x1="-.101112" x2="1.10113" y1=".499995" y2=".499995"><stop offset="0" stop-color="#1fa3ff"/><stop offset="1"/></linearGradient><linearGradient id="b" gradientUnits="objectBoundingBox" x1="0" x2=".999979" y1=".499998" y2=".499998"><stop offset="0" stop-color="#909ca4"/><stop offset="1"/></linearGradient><radialGradient id="c" cx="128.661" cy="128.048" gradientUnits="userSpaceOnUse" r="98.9999"><stop offset="0" stop-color="#909ca4"/><stop offset=".469828" stop-color="#768087"/><stop offset=".517774" stop-color="#626b71"/><stop offset=".547414" stop-color="#4e565b"/><stop offset=".570813" stop-color="#6b747b"/><stop offset=".62931" stop-color="#88939b"/><stop offset="1" stop-color="#88939b"/></radialGradient><g stroke-linecap="square" stroke-linejoin="bevel"><path d="m94.225 58.3834h71.2v16.5877l-13.199 10.5822v60.9197l13.199 9.724v14.587h-71.2v-14.589l14.401-10.294v-60.3477l-14.401-10.8662z" fill="url(#a)"/><path d="m126.776 170.784h5.81l-.175 50.015-2.85 3.15-2.785-3.25z" fill="url(#b)"/><path d="m109.011 216.972c-40.2553-8.965-70.3497-44.892-70.3497-87.848 0-49.7059 40.2945-90.0003 89.9997-90.0003 49.706 0 90 40.2944 90 90.0003 0 41.665-28.313 76.718-66.75 86.968" fill="none" stroke="url(#c)" stroke-width="10"/></g></svg>

﻿<?xml version="1.0" encoding="utf-8"?>
<!DOCTYPE svg PUBLIC "-//W3C//DTD SVG 1.1//EN" "http://www.w3.org/Graphics/SVG/1.1/DTD/svg11.dtd">
<svg xmlns="http://www.w3.org/2000/svg" xmlns:xlink="http://www.w3.org/1999/xlink" version="1.1" baseProfile="full" width="258" height="258" viewBox="0 0 258.00 258.00" enable-background="new 0 0 258.00 258.00" xml:space="preserve">
	<g>
		<linearGradient id="SVGID_Fill1_" gradientUnits="objectBoundingBox" x1="-0.101112" y1="0.499995" x2="1.10113" y2="0.499995">
			<stop offset="0" stop-color="#1FA3FF" stop-opacity="1"/>
			<stop offset="1" stop-color="#000000" stop-opacity="1"/>
		</linearGradient>
		<path fill="url(#SVGID_Fill1_)" stroke-linecap="square" stroke-linejoin="bevel" d="M 94.225,58.3834L 165.425,58.3834L 165.425,74.9711L 152.226,85.5533L 152.226,146.473L 165.425,156.197L 165.425,170.784L 94.225,170.784L 94.225,156.195L 108.626,145.901L 108.626,85.5533L 94.225,74.6871L 94.225,58.3834 Z "/>
		<linearGradient id="SVGID_Fill2_" gradientUnits="objectBoundingBox" x1="0" y1="0.499998" x2="0.999979" y2="0.499998">
			<stop offset="0" stop-color="#909CA4" stop-opacity="1"/>
			<stop offset="1" stop-color="#000000" stop-opacity="1"/>
		</linearGradient>
		<path fill="url(#SVGID_Fill2_)" stroke-linecap="square" stroke-linejoin="bevel" d="M 126.776,170.784L 132.586,170.784L 132.411,220.799L 129.561,223.949L 126.776,220.699L 126.776,170.784 Z "/>
		<radialGradient id="SVGID_Stroke1_" cx="128.661" cy="128.048" r="98.9999" gradientUnits="userSpaceOnUse">
			<stop offset="0" stop-color="#909CA4" stop-opacity="1"/>
			<stop offset="0.469828" stop-color="#768087" stop-opacity="1"/>
			<stop offset="0.517774" stop-color="#626B71" stop-opacity="1"/>
			<stop offset="0.547414" stop-color="#4E565B" stop-opacity="1"/>
			<stop offset="0.570813" stop-color="#6B747B" stop-opacity="1"/>
			<stop offset="0.62931" stop-color="#88939B" stop-opacity="1"/>
			<stop offset="1" stop-color="#88939B" stop-opacity="1"/>
		</radialGradient>
		<path fill="none" fill-rule="evenodd" stroke-width="10" stroke-linecap="square" stroke-linejoin="bevel" stroke="url(#SVGID_Stroke1_)" d="M 109.011,216.972C 68.7557,208.007 38.6613,172.08 38.6613,129.124C 38.6613,79.4181 78.9558,39.1237 128.661,39.1237C 178.367,39.1237 218.661,79.4181 218.661,129.124C 218.661,170.789 190.348,205.842 151.911,216.092"/>
	</g>
</svg>
